X: 1
T: String Quartet in F Minor opus 20 no 5 mvt 2
C: Franz Joseph Haydn
%%abc-version 2.0
%%abcx-abcm2ps-target-version 5.9.1 (29 Sep 2008)
%%abc-creator hum2abc beta
%%abcx-conversion-date 2021/02/14 14:38:31
%%abc-copyright Copyright (c) 1994, 2000 Center for Computer Assisted Research in the Humanities
%%abc-edited-by Frances Bennion
%%abcx-initial-encoding-date 1997/04/15
%%gracespace 0 6 6
%%humdrum-veritas 1439081389
%%humdrum-veritas-data 2377765396
%%linebreak <none>
%%barnumbers 0
L: 1/4
M: 3/4
N: Derived from op20n5-02.krn
Q: "Menuetto"
%%staves [1 2 3 4]
V: 1
V: 2
V: 3 clef=alto
V: 4 clef=bass
K: Ab
[V:1]c3- [I:setbarnb2] |
[V:2]A, A, A, |
[V:3]C C C |
[V:4]F, F, F, |
[V:1]c B G |
[V:2]B,3 |
[V:3]=E3 |
[V:4]G,3 |
[V:1]F f f |
[V:2]C A A |
[V:3]F A =B, |
[V:4]A, F, D, |
[V:1]f2 =e |
[V:2]A2 G |
[V:3]C3 |
[V:4]C,3 |
[V:1]c2 d/c/ |
[V:2]G3 |
[V:3]=E3 |
[V:4]z3 |
[V:1]c c c |
[V:2]A3 |
[V:3]F3 |
[V:4]z3 |
[V:1]c2 d/c/ |
[V:2]G3 |
[V:3]E3 |
[V:4]z3 |
[V:1]f B A- |
[V:2]F2 E |
[V:3]D2 C |
[V:4]z3 |
[V:1]A G F |
[V:2]D2 C |
[V:3]B,2 A, |
[V:4]z3 |
[V:1]E2 =D |
[V:2]B,2 _C |
[V:3]G,2 A, |
[V:4]E,, E,, E,, |
[V:1]E =D E |
[V:2]B, _C B, |
[V:3]G, A, G, |
[V:4]E,,3- |
[V:1]D3 |
[V:2]G,3 |
[V:3]B,3 |
[V:4]E,, _F,, E,, |
[V:1]C e e |
[V:2]A, z E |
[V:3]A, z A, |
[V:4]A,, z C, |
[V:1]z d B/G/ |
[V:2]F z D |
[V:3]A, z G,/B,/ |
[V:4]D, z E, |
[V:1]A e e |
[V:2]C z E |
[V:3]A, z A, |
[V:4]A,, z C, |
[V:1]z d B/G/ |
[V:2]F z D |
[V:3]A, z G,/B,/ |
[V:4]D, z E, |
[V:1]A c c |
[V:2]C z2 |
[V:3]A, z2 |
[V:4]A, z2 |
[V:1]z c c |
[V:2]B, z2 |
[V:3]=E z2 |
[V:4]G, z2 |
[V:1]c3- |
[V:2]=A, A, A, |
[V:3]E E E |
[V:4]F, F, F, |
[V:1]c d B |
[V:2]B, z2 |
[V:3]E F D |
[V:4]B,2 z |
[V:1]z =A c/B/ |
[V:2]_G3 |
[V:3]E3 |
[V:4]z3 |
[V:1]B2 f/d/ |
[V:2]F z2 |
[V:3]D z2 |
[V:4]z3 |
[V:1]c2 =B/c/ |
[V:2]z A A |
[V:3]z F F |
[V:4]z3 |
[V:1]c3- |
[V:2]G =E G |
[V:3]=E =E, G, |
[V:4]C,, =E,, G,, |
[V:1]c2 f |
[V:2]A F =B, |
[V:3]A, F, D, |
[V:4]A,, F,, D,, |
[V:1]=e c c |
[V:2]C =E G |
[V:3]C, =E, G, |
[V:4]C,, =E,, G,, |
[V:1]c2 f |
[V:2]A F =B, |
[V:3]A, F, D, |
[V:4]A,, F,, D,, |
[V:1]=e c c |
[V:2]C z2 |
[V:3]C, z2 |
[V:4]C,, z2 |
[V:1]z c c |
[V:2]B, z2 |
[V:3]=E z2 |
[V:4]G, z2 |
[V:1]c3- |
[V:2]A, A, A, |
[V:3]F C C |
[V:4]F, F, F, |
[V:1]c B G |
[V:2]B,3 |
[V:3]=E3 |
[V:4]G,3 |
[V:1]F f f |
[V:2]C A A |
[V:3]F A =B, |
[V:4]A, F, D, |
[V:1]f2 =e |
[V:2]A2 G |
[V:3]C3 |
[V:4]C,3 |
[V:1]F a a |
[V:2]F f f |
[V:3]A, F, D, |
[V:4]A, F, D, |
[V:1]a2 g |
[V:2]f2 =e |
[V:3]C,3 |
[V:4]C,3 |
[V:1]c2 d/c/ |
[V:2]G3 |
[V:3]=E3 |
[V:4]z3 |
[V:1]c c c |
[V:2]A3 |
[V:3]F3 |
[V:4]z3 |
[V:1]c2 d/c/ |
[V:2]=E3 |
[V:3]B,3 |
[V:4]G,3 |
[V:1]c c c |
[V:2]F3 |
[V:3]C3 |
[V:4]A,3- |
[V:1]c2 b/a/ |
[V:2]_G3 |
[V:3]E3 |
[V:4]A,3- |
[V:1]a f d |
[V:2]F3 |
[V:3]D3 |
[V:4]A,3 |
[V:1]c2 e/d/ |
[V:2]_G2 F- |
[V:3]E2 C |
[V:4]=A,3 |
[V:1]d2 f/=e/ |
[V:2]F A G |
[V:3]B, F =D |
[V:4]B,2 =B, |
[V:1]=e c =B |
[V:2]G2 A |
[V:3]C =E F |
[V:4]C3- |
[V:1]c =B c |
[V:2]G A G |
[V:3]=E F E |
[V:4]C3 |
[V:1]B3 |
[V:2]=E F E |
[V:3]G3- |
[V:4]C D C |
[V:1]=e3 |
[V:2]d c B |
[V:3]G A B |
[V:4]B, A, G, |
[V:1]f a a |
[V:2]A z c |
[V:3]c z F- |
[V:4]F, z A,, |
[V:1]z g b/=e/ |
[V:2]d z B |
[V:3]F z =E/G/ |
[V:4]B,, z C, |
[V:1]f a a |
[V:2]A z c |
[V:3]F z F- |
[V:4]F, z A,, |
[V:1]z g b/=e/ |
[V:2]d z B |
[V:3]F z =E/G/ |
[V:4]B,, z C, |
[V:1]f c c |
[V:2]A A A |
[V:3]F z2 |
[V:4]F,, z2 |
[V:1]z =E E |
[V:2]z B, B, |
[V:3]G, z2 |
[V:4]C, z2 |
[V:1]F z2 |
[V:2]A, z2 |
[V:3]F, z2 |
[V:4]F,, z2 |
[V:1]F3 |
[V:2]=A,3 |
[V:3]F, z2 |
[V:4]F,, F,, F,, |
[V:1]=E2 =D |
[V:2]B,3 |
[V:3]z3 |
[V:4]F,, F,, F,, |
[V:1]C2 =D |
[V:2]=A,2 B, |
[V:3]z3 |
[V:4]F,, F,, F,, |
[V:1]C2 B, |
[V:2]=A,2 G, |
[V:3]C, =D, =E, |
[V:4]F,,3- |
[V:1]=A, z =A/B/ |
[V:2]=A, z2 |
[V:3]F, z2 |
[V:4]F,, z2 |
[V:1]=B/c/ =d/c/ B/c/ |
[V:2]z3 |
[V:3]z3 |
[V:4]z3 |
[V:1]G G =A/B/ |
[V:2]C C z |
[V:3]C C z |
[V:4]=E, E, z |
[V:1]=B/c/ =d/c/ B/c/ |
[V:2]z3 |
[V:3]z3 |
[V:4]z3 |
[V:1]F F =d/c/ |
[V:2]=B, B, z |
[V:3]F, F, z |
[V:4]=D, D, z |
[V:1]=E E =e/f/ |
[V:2]C C z |
[V:3]G, G, z |
[V:4]C, C, z |
[V:1]^f/g/ =a/g/ f/g/ |
[V:2]z3 |
[V:3]z3 |
[V:4]z3 |
[V:1]=d' f =e |
[V:2]z =d c |
[V:3]z G G |
[V:4]z =B, C |
[V:1]=d z ^c/d/ |
[V:2]=A z2 |
[V:3]=A z2 |
[V:4]F, z2 |
[V:1]^c/=d/ =e/d/ f/d/ |
[V:2]z3 |
[V:3]z3 |
[V:4]z3 |
[V:1]=A z F |
[V:2]z2 =B, |
[V:3]z2 =D |
[V:4]z2 G, |
[V:1]=E z2 |
[V:2]C z2 |
[V:3]=E z2 |
[V:4]C, z2 |
[V:1]c3 |
[V:2]C3 |
[V:3]=E,3 |
[V:4]C,, C, C, |
[V:1]=d2 =e |
[V:2]=B,/C/ =D/C/ _B,/C/ |
[V:3]F,2 G, |
[V:4]C,, C, C, |
[V:1]f c =A/F/ |
[V:2]=A,/C/ F/C/ A,/C/ |
[V:3]F,3 |
[V:4]C,, C, C, |
[V:1]C c =e |
[V:2]G,/C/ =E/C/ B,/C/ |
[V:3]=E,2 G, |
[V:4]C,, C, C, |
[V:1]f c =A/F/ |
[V:2]=A,/C/ F/C/ A,/C/ |
[V:3]F,3 |
[V:4]C,, C, C, |
[V:1]C c =e |
[V:2]G,/C/ =E/C/ B,/C/ |
[V:3]=E,2 G, |
[V:4]C,, C, C, |
[V:1]f c =A/F/ |
[V:2]=A,/C/ F/C/ A,/C/ |
[V:3]F,3 |
[V:4]C,, C, C, |
[V:1]C z2 |
[V:2]G, z2 |
[V:3]=E, z2 |
[V:4]C, z2 |
[V:1]F3 |
[V:2]=A,3 |
[V:3]z3 |
[V:4]F,, F,, F,, |
[V:1]=E2 =D |
[V:2]B,3 |
[V:3]z3 |
[V:4]F,, F,, F,, |
[V:1]C2 =D |
[V:2]=A,2 B, |
[V:3]z3 |
[V:4]F,, F,, F,, |
[V:1]C2 B, |
[V:2]=A,2 G, |
[V:3]C, =D, =E, |
[V:4]F,,3- |
[V:1]=A, z =d/e/ |
[V:2]=A, z2 |
[V:3]F, z2 |
[V:4]F,, z2 |
[V:1]=e/f/ g/f/ e/f/ |
[V:2]z3 |
[V:3]z3 |
[V:4]z3 |
[V:1]=d d d/e/ |
[V:2]F F z |
[V:3]B, B, z |
[V:4]B, B, z |
[V:1]=e/f/ g/f/ e/f/ |
[V:2]z3 |
[V:3]z3 |
[V:4]z3 |
[V:1]c c g/f/ |
[V:2]F F z |
[V:3]=A, A, z |
[V:4]=A, A, z |
[V:1]B B g/f/ |
[V:2]=E E z |
[V:3]G, G, z |
[V:4]G, G, z |
[V:1]=A A =a/b/ |
[V:2]F F z |
[V:3]C C z |
[V:4]F, F, z |
[V:1]=b/c'/ =d'/c'/ b/c'/ |
[V:2]z3 |
[V:3]z3 |
[V:4]z3 |
[V:1]b b/>g/ =a3//f// |
[V:2]c3 |
[V:3]G2 F |
[V:4]=E,2 F, |
[V:1]g z ^f/g/ |
[V:2]=d z =A/B/ |
[V:3]B, z2 |
[V:4]B,, z2 |
[V:1]^f/g/ b/g/ =e/g/ |
[V:2]=A/B/ =d/B/ G/B/ |
[V:3]z2 B,/G,/ |
[V:4]z2 C, |
[V:1]f z2 |
[V:2]=A z2 |
[V:3]=A, z2 |
[V:4]F, z2 |
[V:1]z3 |
[V:2]z2 ^c/=d/ |
[V:3]z3 |
[V:4]z2 =A,/B,/ |
[V:1]f3 |
[V:2]^c/=d/ f/d/ f/d/ |
[V:3]z3 |
[V:4]=A,/B,/ =D/B,/ D/B,/ |
[V:1]b3 |
[V:2]=A/B/ c/B/ =d/B/ |
[V:3]=D3 |
[V:4]^F,/G,/ =A,/G,/ B,/G,/ |
[V:1]b/g/ =e/c/ B/=A/ |
[V:2]G2 F |
[V:3]C3 |
[V:4]=E,2 F, |
[V:1]^c/=d/ B/G/ =E/C/ |
[V:2]z2 B, |
[V:3]B, z G, |
[V:4]B,, z C, |
[V:1]F z2 |]
[V:2]=A, z2 |]
[V:3]=A, z2 |]
[V:4]F,, z2 |]

